X:25
T:Je n'ai plus de ma\^itresse. [FJ25]
S:Festin joyeux.  Music page 13.
Z:transcribed by Eric Conrad, 2021.
N:NB The meter is given simply as "2"
N:NB G is the second line of the staff (lines: usual EGBdf).
N:NB MS has a four-dot repeat in the middle, with no marks at start or end.
N:NB Repeat marks were added at beginning and end.
N:NB The MS repeat mark is 4 vertical dots enclosed by bars on both sides.
N:NB The plus signs seem to indicate some kind of roll or trill.
M:2/2
L:1/4
K:C % no sharps or flats, ending in C
|: G | c>B c>d | f2 f>e | c>A d>d | d3 ::
G | GE A>G | F2 E>A | A>G A>B | c2 G>e | "^+"dc "^+"c>B | c3 :|

